X:1
T:Gitanerias
T:Gitanerías
T:from "Suite Andalucía"
T:Ernesto Lecuona
C:Ernesto Lecuona
%%score { ( 1 3 ) | 2 }
L:1/8
Q:1/4=300
M:3/4
K:F
V:1 treble nm="Piano" snm="Pno."
V:3 treble 
V:2 bass 
V:1
!p! .a2 (3aba .g2 | .f2 .e2 .d2 | (_efgb) .e2 | (^cdea) .A2 | !>!a2 (3aba .g2 | .f2 .e2 .d2 | %6
 (_efgb) .e2 | (^cdea) .A2 | (adfad'a) | !>!b(cegc'g) | !>!a(cfac'a) | !>!b(degbg) | !>!a(Adfaf) | %13
 gGdege | fFAdfd | eGA^cec |!f! !>!A2 (3ABA G2 | F2 E2 D2 | !>![_EGB]2 ([EGB]D)([EGB]D) | %19
 !>![^CA]2 ([CA]=B,)([CA](A,) | A) z (3ABA G2 | F2 E2 D2 | !>![_EGB]2 ([EGB]D)([EGB]D) | %23
 !>![^CA]2 ([CA]=B,)([CA]A,) | !>!A(DFAdA) | !>!B(=CEGcG) | !>!A(CFAcA) | !>!B(DEGBG) | %28
 !>!A(A,DFAF) | !>!G(G,DEGE) | !>!F(F,A,DFD) | !>!E(G,A,^CEC) |!ff! !>!D[I:staff +1]F,A,DA,D | %33
 !>!B,E,B,DB,D | !>!A,F,A,DA,D | !>!B,E,B,DB,D |"_cresc." !>![F,A,]D!>![E,B,]D[E,B,]D | %37
 !>![F,A,]D!>![E,B,]D[E,B,]D | !>![F,A,]D!>![E,B,]D[E,B,]D | !>![F,A,]D!>![E,B,]D[E,B,]D | %40
 !>![F,A,D]2 ^G,A,DF | %41
"_accel."[Q:1/4=300]"^\n"[I:staff -1] ^CD[Q:1/4=305]"^\n"FA[Q:1/4=310]"^\n"EF | %42
"_accel."[Q:1/4=320]"^\n" ^GA[Q:1/4=325]"^\n"df[Q:1/4=330]"^\n"^cd | %43
[Q:1/4=335]"^\n" fa[Q:1/4=340]"^\n"ef[Q:1/4=345]"^\n"^ga | %44
[Q:1/4=350]"^\n"!8va(! d'f'[Q:1/4=355]"^\n"^c'd'[Q:1/4=360]"^\n"f'a' | %45
[Q:1/4=365]"^\n" e'f'[Q:1/4=370]"^\n"^g'a'[Q:1/4=375]"^\n"d''f'' | %46
 a'' z z2!<(! (5:4:5=g''/f''/_e''/d''/c''/!<)! | .b' z!8va)![Q:1/4=300]"^\n" z2 z2 | %48
 z2 z2 (5:4:5(=g'/f'/_e'/d'/c'/) | .b z z2 z2 |!f! ^c6- | (c6 |!p! [Fd]) z z2 z2 | z6 | z6 | %55
 z2 z2 !>!A,2- |!p! A,6- | A,6- | A,6- | A,6- | A,6- | A,6- | A,6- | A,4 !>!A,2- | A,6- | A,6- | %66
 A,6- | A,6 | .[D^FA]2 .[DFA]2 .[C_EG]2 | .[A,DF]2 .[A,DF]2 .[G,B,_E]2 | %70
[I:staff +1] .[^F,A,D]2 ([F,A,D]4 | [F,A,D]4)[I:staff -1] a2 |!mf! [a^f'a']2 [af'a']2 [ge'g']2 | %73
 [^fd'^f']2 [fd'f']2 [ec'e']2 | [^fd'^f']2 [fd'f']2 [ge'g']2 | [a^f'a']2 [af'a']2 [bg'b']2 | %76
 [c'a'c'']2 [c'a'c'']2 [bg'b']2 | [a^f'a']2 [af'a']2 [ge'g']2 | [a^f'a']2 [af'a']4- | [af'a']4 a2 | %80
 [a^f'a']2 [af'a']2 [ge'g']2 | [^fd'^f']2 [fd'f']2 [ec'e']2 | [^fd'^f']2 [fd'f']2 [ge'g']2 | %83
 [a^f'a']2 [af'a']2 [bg'b']2 | [c'a'c'']2 [c'a'c'']2 [bg'b']2 | [a^f'a']2 [af'a']2 [ge'g']2 | %86
 [a^f'a']2 [af'a']4- | [af'a']4 d'2 |!f! [bg'b']2 [bg'b']2 [a=f'a']2 | %89
 [g_e'g']2 [ge'g']2 [fd'f']2 | [=e^c'=e']2 [ec'e']4- | [ec'e']4 a2 | [Bgb]2 [Bgb]2 [Afa]2 | %93
 [G_eg]2 [Geg]2 [Fdf]2 | [=E^c=e]2 [Ece]4- | [Ece]4 A2 |!ff! !>![FAdf]2 !>![FAdf]2 z2 | %97
 !>![EG^ce]2 !>![EGce]2 z2 | !>![DFAd]2 !>![DFAd]2 z2 | !>![A,^CEA]2 !>![A,CEA]2 z2 | %100
 !>![A,DFA]2 !>![A,DFA]2 z2 | !>![G,B,_EG]2 !>![G,B,EG]2 z2 | !>![F,A,DF]2 !>![F,A,DF]2 z2 | %103
 !>![E,G,^CE]2 !>![E,G,CE]2 z2 | !>![D,F,A,D]2[I:staff +1] (^G,A,DF) |[I:staff -1] (^CDFA) z2 | %106
!ff! z2[I:staff +1] (^G,A,DF) |[I:staff -1] ^CDFA z2 | z2[I:staff +1] (^G,A,DF) | %109
"_senza rit."!<(![I:staff -1] (^CDFA) (EF | ^GA) (df^cd)!<)! | (faef) (^G/A/d/f/) | %112
!ff! .a2 (3aba .g2 | .f2 .e2 .d2 | (_efgb) .e2 | (^cdea) .A2 | !>!a2 (3aba .g2 | .f2 .e2 .d2 | %118
 (_efgb) .e2 | (^cdea) .A2 | (.adfad'a) | !>!b(cegc'g) | !>!a(cfac'a) | !>!b(degbg) | !>!a(Adfaf) | %125
 gGdege | fFAdfd | eGA^cec |!f! !>!A2 (3ABA G2 | F2 E2 D2 | !>![_EGB]2 ([EGB]D)([EGB]D) | %131
 !>![^CA]2 ([CA]=B,)([CA](A,) | !>!A) z (3ABA G2 | F2 E2 D2 | !>![_EGB]2 ([EGB]D)([EGB]D) | %135
 !>![^CA]2 ([CA]=B,)([CA]A,) | !>!A(DFAdA) | !>!B(=CEGcG) | !>!A(CFAcA) | !>!B(DEGBG) | %140
 !>!A(A,DFAF) | !>!G(G,DEGE) | !>!F(F,A,DFD) | !>!E(G,A,^CEC) |!ff! !>!D[I:staff +1]F,A,DA,D | %145
 !>!B,E,B,DB,D | !>!A,F,A,DA,D | !>!B,E,B,DB,D |"_cresc." !>![F,A,]D!>![E,B,]D[E,B,]D | %149
 !>![F,A,]D!>![E,B,]D[E,B,]D | !>![F,A,]D!>![E,B,]D[E,B,]D | !>![F,A,]D!>![E,B,]D[E,B,]D | %152
 !>![F,A,D]2 ^G,A,DF | %153
"_accel."[Q:1/4=305]"^\n"[I:staff -1] ^CD[Q:1/4=310]"^\n"FA[Q:1/4=315]"^\n"EF | %154
[Q:1/4=320]"^\n" ^GA[Q:1/4=325]"^\n"df[Q:1/4=330]"^\n"^cd | %155
[Q:1/4=335]"^\n" fa[Q:1/4=340]"^\n"ef[Q:1/4=350]"^\n"^ga | %156
[Q:1/4=355]"^\n"!8va(! d'f'[Q:1/4=360]"^\n"^c'd'[Q:1/4=365]"^\n"f'a' | %157
[Q:1/4=370]"^\n" e'f'[Q:1/4=375]"^\n"^g'a'[Q:1/4=380]"^\n"d''f'' | %158
 a'' z z2!<(! (5:4:5=g''/f''/_e''/d''/c''/!<)! |[Q:1/4=300]"^\n" .b' z!8va)! z2 z2 | %160
 z2 z2 (5:4:5(=g'/f'/_e'/d'/c'/) | .b z z2 z2 |!f! (^c6 |!pp! .d) z z2 z2 |!pp!!8va(! .a' z z4 | %165
!pp! .d''!8va)! z z2 !fermata!z2 |] %166
V:2
 .[D,A,]2 .[A,F]2 .[D,A,]2 | .[D,A,]2 .[A,F]2 .[D,A,]2 | .[D,B,]2 .[B,G]2 .[D,B,]2 | %3
 .[D,A,]2 .[A,E]2 .[D,A,]2 | .[D,A,]2 .[A,F]2 .[D,A,]2 | .[D,A,]2 .[A,F]2 .[D,A,]2 | %6
 .[D,B,]2 .[B,G]2 .[D,B,]2 | .[D,A,]2 .[A,E]2 .[D,A,]2 | .[D,A,]2 .[A,F]2 .[D,A,]2 | %9
 .C,2 .[B,E]2 .C,2 | .F,2 .[CA]2 .F,2 | .G,2 .B2 .G,2 | .A,2 !>!A2 .A,2 | %13
 .B,2[I:staff -1] !>!B2[I:staff +1] .B,2 | .A,2[I:staff -1] !>!A,2[I:staff +1] .[D,A,]2 | %15
 .A,,2 .A,2 .A,,2 | .[D,,A,,]2 .[A,,F,]2 .[D,,A,,]2 | .[D,,A,,]2 .[A,,F,]2 .[D,,A,,]2 | %18
 !>![D,,B,,]2 [B,,G,]2 [D,,B,,]2 | !>![D,,A,,]2 !>![A,,E,]2 [D,,A,,]2 | %20
 [D,,A,,]2 !>![A,,F,]2 [D,,A,,]2 | !>![D,,A,,]2 [A,,F,]2 [D,,A,,]2 | %22
 !>![D,,B,,]2 [B,,G,]2 [D,,B,,]2 | !>![D,,A,,]2 !>![A,,E,]2 [D,,A,,]2 | %24
 !>![D,,A,,]2 [A,,F,]2 [D,,A,,]2 | !>!C,,2 [B,,E,]2 C,,2 | !>!F,,2 [C,A,]2 F,,2 | %27
 !>!G,,2 !>!B,2 G,,2 | !>!A,,2 !>!A,2 A,,2 | !>!B,,2 !>!B,2 B,,2 | !>!A,,2 !>!A,2 A,,2 | %31
 !>!A,,,2 !>!A,,2 A,,,2 | !>!D,,2 D,2 D,,2 | !>!G,,2 D,2 G,,2 | !>!D,,2 D,2 D,,2 | %35
 !>!G,,2 D,2 D,,2 | !>![D,,A,,]2 !>![G,,D,]4 | !>![D,,A,,]2 !>![G,,D,]4 | %38
 !>![D,,A,,]2 !>![G,,D,]4 | !>![D,,A,,]2 !>![G,,D,]4 | !>![D,,A,,]2 .^G,,2 .A,,2 | %41
 .^C,2 .D,2 .E,2 | .^G,2 .A,2 .^C2 | .D2 .F2 .^G2 |[K:treble] .A2 .^c2 .d2 | .f2 .^g2 .a2 | %46
 .d' z z2 z2 | .[gb_e'g'] z z4 | z6 | .[GB_eg] z z2 z2 |[K:bass] [A,E=G]6- | [A,EG]6 | %52
 !>!.D,,,2 .A,,,2 .D,,2 | !>!.D,,,2 .A,,,2 .D,,2 | !>!.D,,,2 .A,,,2 .D,,2 | %55
 !>!.D,,,2 .A,,,2 .D,,2 | !>!.D,,,2 .A,,,2 .D,,2 | !>!.D,,,2 .A,,,2 .D,,2 | %58
 !>!.D,,,2 .A,,,2 .D,,2 | !>!.D,,,2 .A,,,2 .D,,2 | !>!.D,,,2 .A,,,2 .D,,2 | %61
 !>!.D,,,2 .A,,,2 .D,,2 | !>!.D,,,2 .A,,,2 .D,,2 | !>!.D,,,2 .A,,,2 .D,,2 | %64
 !>!.D,,,2 .A,,,2 .D,,2 | !>!.D,,,2 .A,,,2 .D,,2 | !>!.D,,,2 .A,,,2 .D,,2 | %67
 !>!.D,,,2 .A,,,2 .D,,2 | !>!.D,,,2 .A,,,2 .D,,2 | !>!.D,,,2 .A,,,2 .D,,2 | %70
 !>!.D,,,2 (.A,,,2 .D,,2) | !>!.D,,,2 .A,,,2 .D,,2 | !>!.D,,,2 .A,,,2 .D,,2 | %73
 !>!.D,,,2 .A,,,2 .D,,2 | !>!.D,,,2 .A,,,2 .D,,2 | !>!.D,,,2 .A,,,2 .D,,2 | %76
 !>!.D,,,2 .A,,,2 .D,,2 | !>!.D,,,2 .A,,,2 .D,,2 | !>!.D,,,2 .A,,,2 .D,,2 | %79
 !>!.D,,,2 .A,,,2 .D,,2 | !>!.D,,,2 .A,,,2 .D,,2 | !>!.D,,,2 .A,,,2 .D,,2 | %82
 !>!.D,,,2 .A,,,2 .D,,2 | !>!.D,,,2 .A,,,2 .D,,2 | !>!.D,,,2 .A,,,2 .D,,2 | %85
 !>!.D,,,2 .A,,,2 .D,,2 | !>!.D,,,2 .A,,,2 .D,,2 | !>!.D,,,2 .A,,,2 .D,,2 | %88
 !>!.D,,,2 .A,,,2 .D,,2 | !>!.D,,,2 .A,,,2 .D,,2 | !>!.D,,,2 .A,,,2 .D,,2 | %91
 !>!.D,,,2 .A,,,2 .D,,2 | !>!.D,,,2 .A,,,2 .D,,2 | !>!.D,,,2 .A,,,2 .D,,2 | %94
 !>!.D,,,2 .A,,,2 .D,,2 | !>!.D,,,2 .A,,,2 .D,,2 | !>!.D,,,2 .A,,,2 .D,,2 | %97
 !>!.D,,,2 .A,,,2 .D,,2 | !>!.D,,,2 .A,,,2 .D,,2 | !>!.D,,,2 .A,,,2 .D,,2 | %100
 !>!.D,,,2 .A,,,2 .D,,2 | !>!.D,,,2 .A,,,2 .D,,2 | !>!.D,,,2 .A,,,2 .D,,2 | %103
 !>!.D,,,2 .A,,,2 .D,,2 | D,,,2!ff! z2!<(! z2 | z2!<)! z2{/^G,,} !>!A,,2 | !>!D,,2!<(! z2 z2 | %107
 z2 z2!<)!{/^G,,} !>!A,,2 | D,,2 z2 z2 | z6 | z6 | z6 | .[D,A,]2 .[A,F]2 .[D,A,]2 | %113
 .[D,A,]2 .[A,F]2 .[D,A,]2 | .[D,B,]2 .[B,G]2 .[D,B,]2 | .[D,A,]2 .[A,E]2 .[D,A,]2 | %116
 .[D,A,]2 .[A,F]2 .[D,A,]2 | .[D,A,]2 .[A,F]2 .[D,A,]2 | .[D,B,]2 .[B,G]2 .[D,B,]2 | %119
 .[D,A,]2 .[A,E]2 .[D,A,]2 | .[D,A,]2 .[A,F]2 .[D,A,]2 | .C,2 .[B,E]2 .C,2 | .F,2 .[CA]2 .F,2 | %123
 .G,2 .B2 .G,2 | .A,2 !>!A2 .A,2 | .B,2[I:staff -1] !>!B2[I:staff +1] .B,2 | %126
 .A,2[I:staff -1] !>!A,2[I:staff +1] .[D,A,]2 | .A,,2 .A,2 .A,,2 | %128
 .[D,,A,,]2 .[A,,F,]2 .[D,,A,,]2 | .[D,,A,,]2 .[A,,F,]2 .[D,,A,,]2 | %130
 !>![D,,B,,]2 [B,,G,]2 [D,,B,,]2 | !>![D,,A,,]2 !>![A,,E,]2 [D,,A,,]2 | %132
 [D,,A,,]2 !>![A,,F,]2 [D,,A,,]2 | !>![D,,A,,]2 [A,,F,]2 [D,,A,,]2 | %134
 !>![D,,B,,]2 [B,,G,]2 [D,,B,,]2 | !>![D,,A,,]2 !>![A,,E,]2 [D,,A,,]2 | %136
 !>![D,,A,,]2 [A,,F,]2 [D,,A,,]2 | !>!C,,2 [B,,E,]2 C,,2 | !>!F,,2 [C,A,]2 F,,2 | %139
 !>!G,,2 !>!B,2 G,,2 | !>!A,,2 !>!A,2 A,,2 | !>!B,,2 !>!B,2 B,,2 | !>!A,,2 !>!A,2 A,,2 | %143
 !>!A,,,2 !>!A,,2 A,,,2 | !>!D,,2 D,2 D,,2 | !>!G,,2 D,2 G,,2 | !>!D,,2 D,2 D,,2 | %147
 !>!G,,2 D,2 D,,2 | !>![D,,A,,]2 !>![G,,D,]4 | !>![D,,A,,]2 !>![G,,D,]4 | %150
 !>![D,,A,,]2 !>![G,,D,]4 | !>![D,,A,,]2 !>![G,,D,]4 | !>![D,,A,,]2 .^G,,2 .A,,2 | %153
 .^C,2 .D,2 .E,2 | .^G,2 .A,2 .^C2 | .D2 .F2 .^G2 |[K:treble] .A2 .^c2 .d2 | .f2 .^g2 .a2 | %158
 .d' z z2 z2 | .[gb_e'g'] z z4 | z6 | .[GB_eg] z z2 z2 |[K:bass] (!>![A,EG]6 | .[DF]) z z2 z2 | %164
 .A,,, z z2 z2 | .D,,, z z2 !fermata!z2 |] %166
V:3
 x6 | x6 | x6 | x6 | x6 | x6 | x6 | x6 | x6 | x6 | x6 | x6 | x6 | x6 | x6 | x6 | x6 | x6 | x6 | %19
 x6 | x6 | x6 | x6 | x6 | x6 | x6 | x6 | x6 | x6 | x6 | x6 | x6 | x6 | x6 | x6 | x6 | x6 | x6 | %38
 x6 | x6 | x6 | x6 | x6 | x6 |!8va(! x6 | x6 | x6 | x2!8va)! x4 | x6 | x6 | x6 | x6 | x6 | x6 | %54
 x6 | x6 | .[^FA]2 .[FA]2 .[EG]2 | .[D^F]2{/G} .[DF]2 .[CE]2 | .[D^F]2 .[DF]2 .[EG]2 | %59
 .[D^FA]2 .[DFA]2 .[_EGB]2 | .[FAc]2 .[FAc]2 .[_EGB]2 | .[D^FA]2 .[DFA]2 .[CEG]2 | %62
 .[D^FA]2 !>![DFA]4- | [DFA]6 | .[^FA]2 .[FA]2 .[EG]2 | .[D^F]2{/G} .[DF]2 .[CE]2 | %66
 .[D^F]2 .[DF]2 .[EG]2 | .[D^FA]2 .[DFA]2 .[_EGB]2 | x6 | x6 | x6 | x6 | x6 | x6 | x6 | x6 | x6 | %77
 x6 | x6 | x6 | x6 | x6 | x6 | x6 | x6 | x6 | x6 | x6 | x6 | x6 | x6 | x6 | x6 | x6 | x6 | x6 | %96
 x6 | x6 | x6 | x6 | x6 | x6 | x6 | x6 | x6 | x6 | x6 | x6 | x6 | x6 | x6 | x6 | x6 | x6 | x6 | %115
 x6 | x6 | x6 | x6 | x6 | x6 | x6 | x6 | x6 | x6 | x6 | x6 | x6 | x6 | x6 | x6 | x6 | x6 | x6 | %134
 x6 | x6 | x6 | x6 | x6 | x6 | x6 | x6 | x6 | x6 | x6 | x6 | x6 | x6 | x6 | x6 | x6 | x6 | x6 | %153
 x6 | x6 | x6 |!8va(! x6 | x6 | x6 | x2!8va)! x4 | x6 | x6 | x6 | x6 |!8va(! x6 | x!8va)! x5 |] %166

